X: 1
T:Gan Ainm
R:jig
M:6/8
L:1/8
K:D
DFA B2A|def g2e|fdf ecA|BdB AFE|!
DFA B2A|def g2e|fdf ecA|1 Bdc dAF:|2 Bdc d2e||!
|:fad fad|faa agf|eg=c eg=c|egg gfe|!
fef gfg|agf efg|fed =cAG|1 Ad^c d2e:|2 Ad^c dAF||!
